svg/color/bna.svg

<?xml version="1.0" encoding="UTF-8" ?>
<!DOCTYPE svg PUBLIC "-//W3C//DTD SVG 1.1//EN" "http://www.w3.org/Graphics/SVG/1.1/DTD/svg11.dtd">
<svg width="250pt" height="250pt" viewBox="0 0 250 250" version="1.1" xmlns="http://www.w3.org/2000/svg">
<g id="#fffffeff">
<path fill="#fffffe" opacity="1.00" d=" M 0.00 0.00 L 250.00 0.00 L 250.00 250.00 L 0.00 250.00 L 0.00 0.00 M 71.39 28.02 C 67.10 29.89 62.97 32.40 60.10 36.17 C 54.31 43.11 49.49 51.60 50.48 60.96 C 50.51 97.66 50.49 134.36 50.49 171.06 C 50.36 177.40 53.29 183.25 56.38 188.60 C 59.97 195.80 67.39 199.70 74.52 202.60 C 79.05 204.37 83.97 204.32 88.70 205.15 C 90.22 211.46 88.74 218.01 89.74 224.36 C 91.99 229.11 98.21 230.99 102.87 228.87 C 105.53 227.29 107.58 224.91 109.76 222.76 C 114.69 217.69 119.91 212.90 124.78 207.76 C 126.31 206.42 127.81 204.42 130.07 204.58 C 138.38 204.52 146.69 204.60 155.00 204.57 C 161.60 204.48 168.28 204.98 174.77 203.52 C 185.61 201.13 195.51 195.10 202.94 186.90 C 206.64 182.83 208.52 177.56 210.73 172.62 C 217.78 155.74 214.06 134.86 201.54 121.50 C 199.68 119.19 197.18 117.06 196.52 114.05 C 197.53 111.72 199.31 109.85 200.95 107.95 C 208.22 100.05 213.14 89.80 213.95 79.03 C 215.72 67.18 211.22 55.45 205.49 45.29 C 202.49 39.56 197.14 35.55 191.65 32.39 C 185.48 29.17 179.10 25.80 172.04 25.25 C 165.75 24.15 159.35 24.39 153.00 24.40 C 130.32 24.39 107.64 24.40 84.96 24.39 C 80.19 24.30 75.70 26.17 71.39 28.02 Z" />
<path fill="#fffffe" opacity="1.00" d=" M 105.50 73.85 C 117.97 73.13 130.52 73.76 143.02 73.53 C 158.11 73.00 172.54 86.67 171.66 101.97 C 171.60 111.28 171.76 120.59 171.61 129.90 C 170.72 144.11 157.24 156.12 143.05 155.53 C 131.37 155.40 119.68 155.58 108.00 155.46 C 93.57 154.92 80.89 141.51 81.43 127.04 C 81.48 118.68 81.46 110.32 81.45 101.96 C 80.97 88.31 92.11 75.82 105.50 73.85 M 107.42 106.55 C 103.70 107.49 101.56 111.28 102.27 115.00 C 101.09 122.36 112.87 125.44 116.49 119.57 C 119.18 116.21 118.72 111.27 115.69 108.30 C 113.63 105.95 110.22 106.18 107.42 106.55 M 140.22 106.81 C 136.95 108.06 134.87 111.55 135.28 115.02 C 135.06 118.83 138.81 121.37 142.03 122.42 C 146.48 122.48 151.41 118.83 150.70 114.00 C 150.94 108.78 145.00 104.77 140.22 106.81 Z" />
</g>
<g id="#fec51bff">
<path fill="#fec51b" opacity="1.00" d=" M 71.39 28.02 C 75.70 26.17 80.19 24.30 84.96 24.39 C 107.64 24.40 130.32 24.39 153.00 24.40 C 159.35 24.39 165.75 24.15 172.04 25.25 C 179.10 25.80 185.48 29.17 191.65 32.39 C 197.14 35.55 202.49 39.56 205.49 45.29 C 211.22 55.45 215.72 67.18 213.95 79.03 C 213.14 89.80 208.22 100.05 200.95 107.95 C 199.31 109.85 197.53 111.72 196.52 114.05 C 197.18 117.06 199.68 119.19 201.54 121.50 C 214.06 134.86 217.78 155.74 210.73 172.62 C 208.52 177.56 206.64 182.83 202.94 186.90 C 195.51 195.10 185.61 201.13 174.77 203.52 C 168.28 204.98 161.60 204.48 155.00 204.57 C 146.69 204.60 138.38 204.52 130.07 204.58 C 127.81 204.42 126.31 206.42 124.78 207.76 C 119.91 212.90 114.69 217.69 109.76 222.76 C 107.58 224.91 105.53 227.29 102.87 228.87 C 98.21 230.99 91.99 229.11 89.74 224.36 C 88.74 218.01 90.22 211.46 88.70 205.15 C 83.97 204.32 79.05 204.37 74.52 202.60 C 67.39 199.70 59.97 195.80 56.38 188.60 C 53.29 183.25 50.36 177.40 50.49 171.06 C 50.49 134.36 50.51 97.66 50.48 60.96 C 49.49 51.60 54.31 43.11 60.10 36.17 C 62.97 32.40 67.10 29.89 71.39 28.02 M 105.50 73.85 C 92.11 75.82 80.97 88.31 81.45 101.96 C 81.46 110.32 81.48 118.68 81.43 127.04 C 80.89 141.51 93.57 154.92 108.00 155.46 C 119.68 155.58 131.37 155.40 143.05 155.53 C 157.24 156.12 170.72 144.11 171.61 129.90 C 171.76 120.59 171.60 111.28 171.66 101.97 C 172.54 86.67 158.11 73.00 143.02 73.53 C 130.52 73.76 117.97 73.13 105.50 73.85 Z" />
<path fill="#fec51b" opacity="1.00" d=" M 107.42 106.55 C 110.22 106.18 113.63 105.95 115.69 108.30 C 118.72 111.27 119.18 116.21 116.49 119.57 C 112.87 125.44 101.09 122.36 102.27 115.00 C 101.56 111.28 103.70 107.49 107.42 106.55 Z" />
<path fill="#fec51b" opacity="1.00" d=" M 140.22 106.81 C 145.00 104.77 150.94 108.78 150.70 114.00 C 151.41 118.83 146.48 122.48 142.03 122.42 C 138.81 121.37 135.06 118.83 135.28 115.02 C 134.87 111.55 136.95 108.06 140.22 106.81 Z" />
</g>
</svg>

<?xml version="1.0" encoding="utf-8"?>
<!-- Generator: Adobe Illustrator 26.0.3, SVG Export Plug-In . SVG Version: 6.00 Build 0)  -->
<svg version="1.1" id="Layer_1" xmlns="http://www.w3.org/2000/svg" xmlns:xlink="http://www.w3.org/1999/xlink" x="0px" y="0px"
	 viewBox="0 0 250 250" style="enable-background:new 0 0 250 250;" xml:space="preserve">
<style type="text/css">
	.st0{fill:#FFFFFE;}
	.st1{fill:#FEC51B;}
</style>
<g id="_x23_fffffeff">
	<path class="st0" d="M105.5,73.8c12.5-0.7,25-0.1,37.5-0.3c15.1-0.5,29.5,13.1,28.6,28.4c-0.1,9.3,0.1,18.6-0.1,27.9
		c-0.9,14.2-14.4,26.2-28.6,25.6c-11.7-0.1-23.4,0.1-35.1-0.1c-14.4-0.5-27.1-14-26.6-28.4c0.1-8.4,0-16.7,0-25.1
		C81,88.3,92.1,75.8,105.5,73.8 M107.4,106.6c-3.7,0.9-5.9,4.7-5.2,8.4c-1.2,7.4,10.6,10.4,14.2,4.6c2.7-3.4,2.2-8.3-0.8-11.3
		C113.6,105.9,110.2,106.2,107.4,106.6 M140.2,106.8c-3.3,1.2-5.4,4.7-4.9,8.2c-0.2,3.8,3.5,6.4,6.8,7.4c4.4,0.1,9.4-3.6,8.7-8.4
		C150.9,108.8,145,104.8,140.2,106.8z"/>
</g>
<g id="_x23_fec51bff">
	<path class="st1" d="M71.4,28c4.3-1.9,8.8-3.7,13.6-3.6c22.7,0,45.4,0,68,0c6.4,0,12.8-0.2,19,0.9c7.1,0.5,13.4,3.9,19.6,7.1
		c5.5,3.2,10.8,7.2,13.8,12.9c5.7,10.2,10.2,21.9,8.5,33.7c-0.8,10.8-5.7,21-13,28.9c-1.6,1.9-3.4,3.8-4.4,6.1c0.7,3,3.2,5.1,5,7.4
		c12.5,13.4,16.2,34.2,9.2,51.1c-2.2,4.9-4.1,10.2-7.8,14.3c-7.4,8.2-17.3,14.2-28.2,16.6c-6.5,1.5-13.2,1-19.8,1.1
		c-8.3,0-16.6-0.1-24.9,0c-2.3-0.2-3.8,1.8-5.3,3.2c-4.9,5.1-10.1,9.9-15,15c-2.2,2.2-4.2,4.5-6.9,6.1c-4.7,2.1-10.9,0.2-13.1-4.5
		c-1-6.4,0.5-12.9-1-19.2c-4.7-0.8-9.6-0.8-14.2-2.5c-7.1-2.9-14.5-6.8-18.1-14c-3.1-5.4-6-11.2-5.9-17.5c0-36.7,0-73.4,0-110.1
		c-1-9.4,3.8-17.8,9.6-24.8C63,32.4,67.1,29.9,71.4,28 M105.5,73.8C92.1,75.8,81,88.3,81.4,102c0,8.4,0,16.7,0,25.1
		c-0.5,14.5,12.1,27.9,26.6,28.4c11.7,0.1,23.4-0.1,35.1,0.1c14.2,0.6,27.7-11.4,28.6-25.6c0.1-9.3,0-18.6,0.1-27.9
		c0.9-15.3-13.6-29-28.6-28.4C130.5,73.8,118,73.1,105.5,73.8z"/>
	<path class="st1" d="M107.4,106.6c2.8-0.4,6.2-0.6,8.3,1.8c3,3,3.5,7.9,0.8,11.3c-3.6,5.9-15.4,2.8-14.2-4.6
		C101.6,111.3,103.7,107.5,107.4,106.6z"/>
	<path class="st1" d="M140.2,106.8c4.8-2,10.7,2,10.5,7.2c0.7,4.8-4.2,8.5-8.7,8.4c-3.2-1-7-3.6-6.8-7.4
		C134.9,111.6,136.9,108.1,140.2,106.8z"/>
</g>
</svg>
